static/icons/code.svg

<svg xmlns="http://www.w3.org/2000/svg" width="24" height="24" viewBox="0 0 24 24">
  <path fill-rule="evenodd" d="M9.0002733,15.8412878 L8.56299535,16.2785657 C8.44930309,16.392258 8.27439191,16.392258 8.16069964,16.2785657 L4.0852692,12.2031353 C3.97157693,12.089443 3.97157693,11.9145319 4.0852692,11.8008396 L8.16069964,7.72540914 C8.27439191,7.61171687 8.44930309,7.61171687 8.56299535,7.72540914 L9.0002733,8.16268709 C9.11396556,8.27637935 9.11396556,8.45129053 9.0002733,8.56498279 L5.56326865,12.0019874 L9.0002733,15.4389921 C9.11396556,15.5526844 9.11396556,15.7275955 9.0002733,15.8412878 Z M14.1688986,6.50977645 L10.9068051,17.800293 C10.8630773,17.9489675 10.7056573,18.0364231 10.5657283,17.9926953 L10.0235037,17.8440208 C9.87482919,17.800293 9.7873736,17.6428729 9.83110139,17.4941984 L13.0931949,6.20368189 C13.1369227,6.05500739 13.2943427,5.9675518 13.4342717,6.0112796 L13.9764963,6.1599541 C14.1251708,6.20368189 14.2126264,6.36110195 14.1688986,6.50977645 Z M19.9147308,12.2031353 L15.8393004,16.2785657 C15.7256081,16.392258 15.5506969,16.392258 15.4370046,16.2785657 L14.9997267,15.8412878 C14.8860344,15.7275955 14.8860344,15.5526844 14.9997267,15.4389921 L18.4367313,12.0019874 L14.9997267,8.56498279 C14.8860344,8.45129053 14.8860344,8.27637935 14.9997267,8.16268709 L15.4370046,7.72540914 C15.5506969,7.61171687 15.7256081,7.61171687 15.8393004,7.72540914 L19.9147308,11.8008396 C20.0284231,11.9145319 20.0284231,12.089443 19.9147308,12.2031353 Z"/>
</svg>

<svg xmlns="http://www.w3.org/2000/svg" width="24" height="24">
    <path fill-rule="evenodd" d="M9 15.841l-.437.438a.28.28 0 0 1-.402 0l-4.076-4.076a.28.28 0 0 1 0-.402l4.076-4.076a.28.28 0 0 1 .402 0L9 8.163a.28.28 0 0 1 0 .402l-3.437 3.437L9 15.439a.28.28 0 0 1 0 .402zm5.17-9.331L10.907 17.8a.278.278 0 0 1-.341.193l-.542-.149a.284.284 0 0 1-.193-.35l3.262-11.29a.278.278 0 0 1 .341-.193l.542.149a.284.284 0 0 1 .193.35zm5.746 5.693l-4.076 4.076a.28.28 0 0 1-.402 0L15 15.84a.28.28 0 0 1 0-.402l3.437-3.437L15 8.565a.28.28 0 0 1 0-.402l.437-.438a.28.28 0 0 1 .402 0l4.076 4.076a.28.28 0 0 1 0 .402z"/>
</svg>
